icons/line/save-alt.svg

<svg width="24" height="24" viewBox="0 0 24 24" fill="none" xmlns="http://www.w3.org/2000/svg">
<path d="M17 7H19C20.1046 7 21 7.89543 21 9V18C21 19.1046 20.1046 20 19 20H5C3.89543 20 3 19.1046 3 18V9C3 7.89543 3.89543 7 5 7H7M12 4V14M12 14L15 11M12 14L9 11" stroke="currentColor" stroke-width="2" stroke-linecap="round" stroke-linejoin="round"/>
</svg>

<svg width="24" height="24" fill="none" xmlns="http://www.w3.org/2000/svg"><path d="M17 7h2a2 2 0 012 2v9a2 2 0 01-2 2H5a2 2 0 01-2-2V9a2 2 0 012-2h2m5-3v10m0 0l3-3m-3 3l-3-3" stroke="currentColor" stroke-width="2" stroke-linecap="round" stroke-linejoin="round"/></svg>
